other/banking.svg

<svg version="1.1" viewBox="0 0 48 48" xmlns="http://www.w3.org/2000/svg"><defs><style>.a{fill:none;stroke:#fff;stroke-linecap:round;stroke-linejoin:round;}</style></defs><path class="a" d="m40.5 5.5h-33a2 2 0 0 0-2 2v33a2 2 0 0 0 2 2h33a2 2 0 0 0 2-2v-33a2 2 0 0 0-2-2z"/><g fill="none" stroke="#fff" stroke-linecap="round" stroke-linejoin="round"><g stroke-miterlimit="10"><path class="st4" d="m20.646 24.1c0.94532 0 1.7188 0.77345 1.7188 1.7188s-0.77345 1.7188-1.7188 1.7188h-2.836v-6.8751h2.836c0.94532 0 1.7188 0.77345 1.7188 1.7188 0 0.94532-0.77345 1.7188-1.7188 1.7188z"/><line class="st4" x1="20.646" x2="17.81" y1="24.1" y2="24.1"/><path class="st0" d="m12.179 25.16c0 1.2891-1.0313 2.3203-2.3203 2.3203-1.2891 0-2.3203-1.0313-2.3203-2.3203v-2.3203c0-1.2891 1.0313-2.3203 2.3203-2.3203 1.2891 0 2.2344 1.0313 2.2344 2.3203"/><path class="st0" d="m29.013 25.16c0 1.2891-1.0313 2.3203-2.3203 2.3203-1.2891 0-2.3203-1.0313-2.3203-2.3203v-2.3203c0-1.2891 1.0313-2.3203 2.3203-2.3203 1.2891 0 2.2344 1.0313 2.2344 2.3203"/><line class="st0" x1="14.018" x2="16.08" y1="27.481" y2="27.481"/><line class="st0" x1="14.018" x2="16.08" y1="20.605" y2="20.605"/><line class="st0" x1="15.049" x2="15.049" y1="20.605" y2="27.481"/></g><path d="m36.063 22.364-1.3741 1.6362 1.3741 1.6362m0-3.2724 1.3741 1.6362-1.3741 1.6362" style="paint-order:normal"/><path transform="matrix(.69255 0 0 -.69255 9.0637 40.599)" d="m40.999 29.304h-4.0294l-4.4558-5.3367 4.4558-5.3367h4.0294l4.4589 5.3367z" stroke-width="1.4439" style="paint-order:normal"/></g></svg>

<svg xmlns="http://www.w3.org/2000/svg" viewBox="0 0 48 48"><defs><style>.a,.b{fill:none;stroke:#fff;stroke-linecap:round;stroke-linejoin:round;}</style></defs><path class="a" d="M40.5,5.5H7.5a2,2,0,0,0-2,2v33a2,2,0,0,0,2,2h33a2,2,0,0,0,2-2V7.5A2,2,0,0,0,40.5,5.5Z"/><path class="a" d="M20.646,24.1a1.7188,1.7188,0,0,1,0,3.4376H17.81V20.6625h2.836a1.7188,1.7188,0,0,1,0,3.4376Z"/><line class="a" x1="20.646" y1="24.1" x2="17.81" y2="24.1"/><path class="a" d="M12.179,25.16a2.32,2.32,0,0,1-4.6406,0V22.84a2.3107,2.3107,0,0,1,2.32-2.32,2.2393,2.2393,0,0,1,2.2344,2.32"/><path class="a" d="M29.013,25.16a2.32,2.32,0,0,1-4.6406,0V22.84a2.3107,2.3107,0,0,1,2.32-2.32,2.2393,2.2393,0,0,1,2.2344,2.32"/><line class="a" x1="14.018" y1="27.481" x2="16.08" y2="27.481"/><line class="a" x1="14.018" y1="20.605" x2="16.08" y2="20.605"/><line class="a" x1="15.049" y1="20.605" x2="15.049" y2="27.481"/><path class="a" d="M36.063,22.364,34.6889,24l1.3741,1.6362m0-3.2724L37.4371,24,36.063,25.6364"/><path class="b" d="M37.4576,20.3045H34.667L31.5811,24l3.0859,3.696h2.7906L40.5456,24Z"/></svg>
